public/img/icon/general/call-circle.svg

<svg width="84" height="84" viewBox="0 0 84 84" fill="none" xmlns="http://www.w3.org/2000/svg">
<g filter="url(#filter0_d_662_21488)">
<circle cx="42" cy="42" r="30" fill="#007BFC"/>
</g>
<path d="M38.5156 21.1204C38.3292 21.1176 38.1428 21.1854 37.9988 21.3238L35.9177 23.3343C35.6325 23.611 35.624 24.0685 35.9036 24.3565C36.0447 24.5005 36.2311 24.5768 36.4231 24.5768C36.6039 24.5768 36.7846 24.509 36.9229 24.3735L39.0041 22.3629C39.2921 22.0862 39.2978 21.6287 39.021 21.3407C38.8827 21.1995 38.6991 21.1261 38.5156 21.1204ZM29.5105 23.9273C27.9235 23.9273 26.5201 24.4356 25.6616 25.3223L25.5769 25.407C24.5434 26.4631 22.1206 28.9395 22.1206 33.8049C22.1206 37.9813 24.6027 42.0165 26.0796 44.0525L26.136 44.1259C26.1699 44.1711 26.2292 44.2586 26.3168 44.3857C31.0099 51.2306 36.81 56.3416 42.6552 58.7758C47.8426 60.9388 50.5873 61.5148 52.4651 61.5148C53.2586 61.5148 53.8968 61.4132 54.5011 61.2833C57.195 60.6988 60.5383 58.7165 61.425 56.1892C62.1479 54.1363 62.371 51.8264 61.9276 51.047C61.634 50.5274 61.0918 50.2648 60.3407 49.9006C60.1769 49.8215 59.999 49.7368 59.807 49.638C59.7505 49.6097 54.2582 46.8593 53.2445 46.5064C51.9709 46.0207 50.8414 46.3652 50.0621 47.4749L49.6639 48.0397C48.893 49.1268 48.1645 50.1547 47.5743 50.7929C47.1987 51.1967 46.5549 51.1797 46.0862 50.9849L45.784 50.8607C44.5218 50.3467 41.8956 49.2793 38.6483 46.3708C36.0504 44.044 34.1867 41.0931 33.509 39.941C33.2266 39.4553 33.3452 39.2803 33.8281 38.7099C34.0878 38.3851 34.342 38.114 34.5961 37.843C34.8079 37.6199 35.0169 37.3968 35.2287 37.1483L35.3275 37.0382C35.7539 36.5384 36.0617 36.1797 36.3779 35.5049C36.9088 34.4657 36.4147 33.4322 36.2537 33.0905C36.0927 32.7545 34.9773 30.0323 34.1641 28.0444L33.3395 26.0338L33.3367 26.031C32.5686 24.1786 31.8006 24.0148 30.6428 23.9668C30.3068 23.9471 29.9284 23.9273 29.5105 23.9273ZM43.2482 25.0455C43.1551 25.0455 43.059 25.0625 42.9659 25.0992L38.9448 26.7229C38.572 26.8725 38.397 27.2961 38.5466 27.666C38.6596 27.9484 38.9307 28.1178 39.2159 28.1178C39.3062 28.1178 39.3966 28.1009 39.4869 28.0642L43.508 26.4405C43.8779 26.2908 44.0558 25.8701 43.9062 25.4973C43.7961 25.2206 43.5306 25.0512 43.2482 25.0455ZM29.7674 25.3787C30.0526 25.3844 30.3209 25.3957 30.5722 25.4098C31.3657 25.4437 31.5323 25.4493 32.0011 26.5817L32.8256 28.5922C33.9269 31.2833 34.7825 33.3672 34.9463 33.7117C35.192 34.2257 35.2343 34.5645 35.0818 34.8695C34.8362 35.3891 34.6328 35.6235 34.2319 36.0922L34.198 36.1346L29.7674 25.3787ZM28.285 25.5086C28.2962 25.5566 28.2934 25.6046 28.3132 25.6498L33.1165 37.3149C32.9781 37.4702 32.8369 37.634 32.6872 37.8175C32.227 38.3625 31.4532 39.2746 32.258 40.6668C33.1447 42.1803 35.031 45.0747 37.6825 47.4495C41.1163 50.5246 44.005 51.6993 45.2362 52.1991L45.527 52.3206C46.665 52.795 47.8849 52.5832 48.636 51.7756C49.0511 51.3266 49.5114 50.7223 49.9915 50.0615L60.2277 55.1782C60.1769 55.3533 60.1261 55.5284 60.0611 55.7119C59.3834 57.6406 56.489 59.3716 54.1961 59.8686C52.7588 60.1764 50.785 60.5999 43.2115 57.4401C37.6232 55.1105 32.0462 50.1858 27.5112 43.5696C27.4039 43.4143 27.3277 43.307 27.2994 43.2675L27.2514 43.1997C25.8763 41.3078 23.5664 37.5719 23.5664 33.8021C23.5664 29.5269 25.6221 27.426 26.6104 26.4179L26.698 26.3275C27.0651 25.9491 27.6242 25.6668 28.285 25.5086ZM39.6677 31.159C39.2667 31.159 38.9448 31.4838 38.9448 31.8819C38.9448 32.2829 39.2667 32.6048 39.6677 32.6048H42.5592C42.9574 32.6048 43.2821 32.2829 43.2821 31.8819C43.2821 31.4838 42.9574 31.159 42.5592 31.159H39.6677ZM30.897 41.7539C30.8038 41.7652 30.7106 41.7963 30.6259 41.8471C30.2814 42.0504 30.1656 42.4937 30.3689 42.8354C30.6061 43.2421 31.0297 43.8633 31.5041 44.5015C31.6453 44.6935 31.8655 44.7923 32.0858 44.7923C32.2354 44.7923 32.3851 44.7471 32.515 44.6511C32.8369 44.4139 32.9047 43.9593 32.6647 43.6402C32.0067 42.7507 31.6961 42.2396 31.6142 42.1041C31.4645 41.8443 31.1765 41.7172 30.897 41.7539ZM34.0878 45.7609C33.9015 45.7496 33.7123 45.8089 33.5654 45.9416C33.2661 46.2042 33.2379 46.6617 33.5033 46.961C34.3392 47.9041 35.192 48.7682 36.0391 49.525C38.0242 51.304 40.0206 52.7159 41.9747 53.7212C42.0792 53.7748 42.195 53.8002 42.3051 53.8002C42.5677 53.8002 42.819 53.659 42.9461 53.4077C43.1325 53.0547 42.9913 52.6171 42.6383 52.4363C40.7915 51.4847 38.8968 50.1434 37.002 48.4491C36.1972 47.7262 35.384 46.9045 34.5848 46.0009C34.4521 45.8541 34.2714 45.7694 34.0878 45.7609ZM52.0811 47.7404C52.2787 47.7262 52.4962 47.7686 52.7475 47.8618C53.524 48.1329 57.7767 50.2366 59.1519 50.9312C59.3523 51.0301 59.5387 51.1204 59.711 51.2052C60.1063 51.3944 60.5976 51.6316 60.6541 51.7247C60.7304 51.9309 60.7501 52.6905 60.575 53.7353L50.8471 48.8699L51.2452 48.3108C51.4937 47.955 51.7563 47.7686 52.0811 47.7404Z" fill="#FEFEFE"/>
<defs>
<filter id="filter0_d_662_21488" x="0.433735" y="0.433735" width="83.1325" height="83.1325" filterUnits="userSpaceOnUse" color-interpolation-filters="sRGB">
<feFlood flood-opacity="0" result="BackgroundImageFix"/>
<feColorMatrix in="SourceAlpha" type="matrix" values="0 0 0 0 0 0 0 0 0 0 0 0 0 0 0 0 0 0 127 0" result="hardAlpha"/>
<feMorphology radius="5.78313" operator="dilate" in="SourceAlpha" result="effect1_dropShadow_662_21488"/>
<feOffset/>
<feGaussianBlur stdDeviation="2.89157"/>
<feComposite in2="hardAlpha" operator="out"/>
<feColorMatrix type="matrix" values="0 0 0 0 1 0 0 0 0 1 0 0 0 0 1 0 0 0 1 0"/>
<feBlend mode="normal" in2="BackgroundImageFix" result="effect1_dropShadow_662_21488"/>
<feBlend mode="normal" in="SourceGraphic" in2="effect1_dropShadow_662_21488" result="shape"/>
</filter>
</defs>
</svg>

<svg width="84" height="84" fill="none" xmlns="http://www.w3.org/2000/svg"><g filter="url(#a)"><circle cx="42" cy="42" r="30" fill="#007BFC"/></g><path d="M38.516 21.12a.727.727 0 0 0-.517.204l-2.081 2.01a.723.723 0 0 0 1.005 1.04l2.081-2.011a.723.723 0 0 0-.488-1.243zm-9.005 2.807c-1.587 0-2.99.509-3.85 1.395l-.084.085c-1.034 1.056-3.456 3.532-3.456 8.398 0 4.176 2.482 8.212 3.959 10.248l.056.073c.034.045.093.133.18.26 4.694 6.845 10.494 11.956 16.34 14.39 5.187 2.163 7.931 2.739 9.81 2.739.793 0 1.43-.102 2.035-.232 2.694-.584 6.037-2.566 6.924-5.094.723-2.053.946-4.363.503-5.142-.294-.52-.836-.782-1.587-1.146-.164-.08-.342-.164-.534-.263-.056-.028-5.549-2.779-6.563-3.132-1.273-.485-2.403-.14-3.182.969l-.398.565c-.771 1.087-1.5 2.115-2.09 2.753-.375.404-1.02.387-1.488.192l-.302-.124c-1.262-.514-3.888-1.582-7.136-4.49-2.598-2.327-4.461-5.278-5.139-6.43-.282-.486-.164-.66.32-1.231.259-.325.513-.596.767-.867.212-.223.42-.446.633-.695l.099-.11c.426-.5.734-.858 1.05-1.533.53-1.04.037-2.073-.124-2.415-.161-.336-1.277-3.058-2.09-5.046l-.825-2.01-.002-.003c-.768-1.852-1.536-2.016-2.694-2.064a18.93 18.93 0 0 0-1.133-.04zm13.737 1.119a.77.77 0 0 0-.282.053l-4.021 1.624a.722.722 0 0 0-.398.943.72.72 0 0 0 .94.398l4.021-1.623a.724.724 0 0 0-.26-1.395zm-13.48.333c.285.005.553.017.804.03.794.035.96.04 1.43 1.173l.824 2.01c1.1 2.691 1.956 4.775 2.12 5.12.246.514.288.852.136 1.157-.246.52-.45.755-.85 1.223l-.034.043-4.43-10.756zm-1.483.13c.011.048.008.096.028.14l4.804 11.666c-.139.155-.28.319-.43.503-.46.544-1.234 1.457-.429 2.849.887 1.513 2.773 4.408 5.424 6.782 3.434 3.076 6.323 4.25 7.554 4.75l.291.122c1.138.474 2.358.262 3.109-.545.415-.45.875-1.054 1.355-1.715l10.237 5.117c-.051.175-.102.35-.167.534-.678 1.929-3.572 3.66-5.865 4.157-1.437.307-3.411.73-10.984-2.429-5.589-2.33-11.166-7.254-15.7-13.87a23.287 23.287 0 0 0-.213-.303l-.048-.067c-1.375-1.892-3.685-5.628-3.685-9.398 0-4.275 2.056-6.376 3.044-7.384l.088-.09c.367-.379.926-.661 1.587-.82zm11.383 5.65a.723.723 0 1 0 0 1.446h2.891a.722.722 0 1 0 0-1.446h-2.891zm-8.771 10.595a.721.721 0 0 0-.528 1.081c.237.407.66 1.028 1.135 1.666a.72.72 0 0 0 .582.291.72.72 0 0 0 .579-1.152 19.77 19.77 0 0 1-1.05-1.536.717.717 0 0 0-.718-.35zm3.19 4.007a.72.72 0 0 0-.584 1.2 31.198 31.198 0 0 0 2.536 2.564c1.985 1.779 3.982 3.19 5.936 4.196a.73.73 0 0 0 .33.08.714.714 0 0 0 .641-.393.717.717 0 0 0-.308-.972c-1.846-.951-3.741-2.293-5.636-3.987a30.134 30.134 0 0 1-2.417-2.448.72.72 0 0 0-.497-.24zm17.994 1.98c.198-.015.415.028.666.12.777.272 5.03 2.376 6.405 3.07.2.1.387.19.559.274.395.19.887.427.943.52.076.206.096.965-.079 2.01l-9.728-4.865.398-.56c.249-.355.511-.541.836-.57z" fill="#FEFEFE"/><defs><filter id="a" x=".434" y=".434" width="83.132" height="83.132" filterUnits="userSpaceOnUse" color-interpolation-filters="sRGB"><feFlood flood-opacity="0" result="BackgroundImageFix"/><feColorMatrix in="SourceAlpha" values="0 0 0 0 0 0 0 0 0 0 0 0 0 0 0 0 0 0 127 0" result="hardAlpha"/><feMorphology radius="5.783" operator="dilate" in="SourceAlpha" result="effect1_dropShadow_662_21488"/><feOffset/><feGaussianBlur stdDeviation="2.892"/><feComposite in2="hardAlpha" operator="out"/><feColorMatrix values="0 0 0 0 1 0 0 0 0 1 0 0 0 0 1 0 0 0 1 0"/><feBlend in2="BackgroundImageFix" result="effect1_dropShadow_662_21488"/><feBlend in="SourceGraphic" in2="effect1_dropShadow_662_21488" result="shape"/></filter></defs></svg>
